X:2770
T:I Rambled Once
O:england
B:Joyce, P. W.; "Old Irish Folk Music and Songs"
R:jig
L:1/8
M:6/8
K:G
ABA c2 d|edc BAB|GBG dBG|G/A/BG dBG|
ABA c2 d|edc Bcd|ege dcB|A3 e3:|
dBd g3|g/a/ba g2 e|dBd g2 d|edc BAG|
A2 a abc'|bag a3|A2 a a2 b|c'2 a bge|
dBd g3|g/a/ba g2 e|dBd g2 d|edc BAG|
ABA c2 d|edc Bcd|ege dcB|A3 e3||


